X: 5829
T: Callaghan's
R: reel
M: 4/4
K: Dmajor
AFFF FEDE|~F3E FAdB|AFFF FEDE|FABA FE E2|
AFFF FEDE|~F3E FAdB|AFFF FEDE|FAEG FD D2||
A2 AB A~F3|ABde feee-|fedc BcdB|ABde fedB|
A2 AB A~F3|ABde feee-|fedc BcdB|ABde fedB||

